Simply-White-Circles/scalable/apps/blender.svg

<svg xmlns="http://www.w3.org/2000/svg" width="48" height="48" viewBox="0 0 12.7 12.7"><path fill="#e6e6e6" d="M6.344.073a6.29 6.29 0 0 0-6.29 6.29 6.29 6.29 0 0 0 6.29 6.288 6.29 6.29 0 0 0 6.29-6.289 6.29 6.29 0 0 0-6.29-6.29zm-.018.936a5.407 5.407 0 0 1 5.407 5.407 5.407 5.407 0 0 1-5.407 5.407A5.407 5.407 0 0 1 .92 6.416 5.407 5.407 0 0 1 6.326 1.01zm-.619 1.445a.584.584 0 0 0-.332 1.051l.663.511H2.813a.584.584 0 1 0 0 1.168h1.463l-2.39 1.738a.584.584 0 1 0 .686.945l1.222-.888a3.113 3.115 0 0 0-.008.152 3.113 3.115 0 0 0 3.112 3.115 3.113 3.115 0 0 0 3.113-3.115 3.113 3.115 0 0 0-1.353-2.57.584.584 0 0 0-.042-.035L6.087 2.58a.584.584 0 0 0-.38-.125zm1.199 2.727A1.948 1.948 0 0 1 8.854 7.13a1.948 1.948 0 0 1-1.948 1.948A1.948 1.948 0 0 1 4.958 7.13a1.948 1.948 0 0 1 1.948-1.948zm0 .974a.974.974 0 0 0-.974.974.974.974 0 0 0 .974.974.974.974 0 0 0 .974-.974.974.974 0 0 0-.974-.974z"/></svg>

<?xml version="1.0" encoding="UTF-8" standalone="no"?>
<svg
   xmlns:dc="http://purl.org/dc/elements/1.1/"
   xmlns:cc="http://creativecommons.org/ns#"
   xmlns:rdf="http://www.w3.org/1999/02/22-rdf-syntax-ns#"
   xmlns:svg="http://www.w3.org/2000/svg"
   xmlns="http://www.w3.org/2000/svg"
   xmlns:sodipodi="http://sodipodi.sourceforge.net/DTD/sodipodi-0.dtd"
   xmlns:inkscape="http://www.inkscape.org/namespaces/inkscape"
   width="48"
   height="48"
   viewBox="0 0 12.7 12.7"
   version="1.1"
   id="svg4"
   sodipodi:docname="blender.svg"
   inkscape:version="0.92.4 (5da689c313, 2019-01-14)">
  <metadata
     id="metadata10">
    <rdf:RDF>
      <cc:Work
         rdf:about="">
        <dc:format>image/svg+xml</dc:format>
        <dc:type
           rdf:resource="http://purl.org/dc/dcmitype/StillImage" />
        <dc:title></dc:title>
      </cc:Work>
    </rdf:RDF>
  </metadata>
  <defs
     id="defs8" />
  <sodipodi:namedview
     pagecolor="#ffffff"
     bordercolor="#666666"
     borderopacity="1"
     objecttolerance="10"
     gridtolerance="10"
     guidetolerance="10"
     inkscape:pageopacity="0"
     inkscape:pageshadow="2"
     inkscape:window-width="1087"
     inkscape:window-height="480"
     id="namedview6"
     showgrid="false"
     inkscape:zoom="4.9166667"
     inkscape:cx="2.1355932"
     inkscape:cy="24"
     inkscape:window-x="0"
     inkscape:window-y="25"
     inkscape:window-maximized="0"
     inkscape:current-layer="svg4" />
  <path
     d="m 6.344,0.073 a 6.29,6.29 0 0 0 -6.29,6.29 6.29,6.29 0 0 0 6.29,6.288 6.29,6.29 0 0 0 6.29,-6.289 6.29,6.29 0 0 0 -6.29,-6.29 z M 6.326,1.009 A 5.407,5.407 0 0 1 11.733,6.416 5.407,5.407 0 0 1 6.326,11.823 5.407,5.407 0 0 1 0.92,6.416 5.407,5.407 0 0 1 6.326,1.01 Z M 5.707,2.454 A 0.584,0.584 0 0 0 5.375,3.505 L 6.038,4.016 H 2.813 a 0.584,0.584 0 1 0 0,1.168 H 4.276 L 1.886,6.922 A 0.584,0.584 0 1 0 2.572,7.867 L 3.794,6.979 A 3.113,3.115 0 0 0 3.786,7.131 3.113,3.115 0 0 0 6.898,10.246 3.113,3.115 0 0 0 10.011,7.131 3.113,3.115 0 0 0 8.658,4.561 0.584,0.584 0 0 0 8.616,4.526 L 6.087,2.58 A 0.584,0.584 0 0 0 5.707,2.455 Z M 6.906,5.181 A 1.948,1.948 0 0 1 8.854,7.13 1.948,1.948 0 0 1 6.906,9.078 1.948,1.948 0 0 1 4.958,7.13 1.948,1.948 0 0 1 6.906,5.182 Z m 0,0.974 A 0.974,0.974 0 0 0 5.932,7.129 0.974,0.974 0 0 0 6.906,8.103 0.974,0.974 0 0 0 7.88,7.129 0.974,0.974 0 0 0 6.906,6.155 Z"
     id="path2"
     inkscape:connector-curvature="0"
     style="fill:#e6e6e6" />
</svg>
